X: 28091
T: Mr. Brennan's Psychological Problems
R: reel
M: 4/4
K: Bminor
|:FB~B2 f3f|fedf edBA|FB~B2 FBdf|edBA BABA|
FB~B2 f3f|fedf edBA|FB~B2 FBdf|1 edBA BABA:|2 edBA Befa||
|:bffe ~f3g|fedf edBA|bffe ~f3g|fedf 2e2fa|
bffe ~f3g|fedf edBA|FB~B2 FBdf|1 edBA B2fa:|2 edBA BABA||

